icons/svg/icons8/worldwide_location.svg

<?xml version="1.0" encoding="utf-8"?>
<!-- Generator: Adobe Illustrator 15.0.0, SVG Export Plug-In . SVG Version: 6.00 Build 0)  -->
<!DOCTYPE svg PUBLIC "-//W3C//DTD SVG 1.1//EN" "http://www.w3.org/Graphics/SVG/1.1/DTD/svg11.dtd">
<svg version="1.1" id="Layer_1" xmlns="http://www.w3.org/2000/svg" xmlns:xlink="http://www.w3.org/1999/xlink" x="0px" y="0px"
	 width="26px" height="26px" viewBox="0 0 26 26" enable-background="new 0 0 26 26" xml:space="preserve">
<rect fill="none" width="26" height="26"/>
<path fill="#333333" d="M23.213,9.226c-0.263,0.508-0.525,1.021-0.767,1.531c0.249,0.715,0.425,1.464,0.503,2.243H21.63
	c-0.072,0.335-0.119,0.665-0.119,0.984V15h1.438c-0.145,1.447-0.605,2.8-1.303,4h-2.932c0.22-0.938,0.356-1.96,0.446-3.016h-0.673
	H17.18c-0.099,1.094-0.274,2.106-0.512,3.016H9.332c-0.307-1.177-0.515-2.523-0.58-4h7.736v-1.016c0-0.318-0.047-0.648-0.118-0.984
	H8.752c0.065-1.477,0.273-2.823,0.58-4h5.361c-0.349-0.678-0.684-1.342-0.965-2h-3.711C10.844,5.113,11.951,4,13,4
	c0-0.695,0.125-1.361,0.344-1.982C13.229,2.014,13.116,2,13,2C6.383,2,1,7.383,1,14s5.383,12,12,12s12-5.383,12-12
	c0-2.01-0.503-3.903-1.38-5.569C23.487,8.694,23.352,8.959,23.213,9.226z M8.878,4.899C8.503,5.52,8.169,6.224,7.881,7h-2.01
	C6.729,6.126,7.749,5.413,8.878,4.899z M4.354,9h2.932c-0.288,1.23-0.473,2.575-0.531,4H3.051C3.195,11.553,3.656,10.2,4.354,9z
	 M4.354,19c-0.697-1.2-1.158-2.553-1.303-4h3.703c0.059,1.425,0.243,2.77,0.531,4H4.354z M5.871,21h2.01
	c0.288,0.776,0.622,1.48,0.997,2.101C7.749,22.587,6.729,21.874,5.871,21z M13,24c-1.049,0-2.156-1.113-2.982-3h5.965
	C15.156,22.887,14.049,24,13,24z M17.122,23.101c0.375-0.62,0.709-1.324,0.997-2.101h2.01
	C19.271,21.874,18.251,22.587,17.122,23.101z"/>
<g>
	<g>
		<path fill="#333333" d="M19,0c-2.209,0-4,1.793-4,4c0,2.665,3.488,6.321,3.488,9.984h1.022C19.511,10.321,23,6.771,23,4
			C23,1.793,21.209,0,19,0z M19,6.061c-1.138,0-2.061-0.92-2.061-2.061c0-1.138,0.923-2.061,2.061-2.061
			c1.139,0,2.061,0.923,2.061,2.061C21.061,5.141,20.139,6.061,19,6.061z"/>
	</g>
</g>
</svg>

<svg width="26" height="26" viewBox="0 0 26 26" fill="none" xmlns="http://www.w3.org/2000/svg">
<path d="M23.213 9.226C22.95 9.734 22.688 10.247 22.446 10.757C22.695 11.472 22.871 12.221 22.949 13H21.63C21.558 13.335 21.511 13.665 21.511 13.984V15H22.949C22.804 16.447 22.344 17.8 21.646 19H18.714C18.934 18.062 19.07 17.04 19.16 15.984H18.487H17.18C17.081 17.078 16.906 18.09 16.668 19H9.332C9.025 17.823 8.817 16.477 8.752 15H16.488V13.984C16.488 13.666 16.441 13.336 16.37 13H8.752C8.817 11.523 9.025 10.177 9.332 9H14.693C14.344 8.322 14.009 7.658 13.728 7H10.017C10.844 5.113 11.951 4 13 4C13 3.305 13.125 2.639 13.344 2.018C13.229 2.014 13.116 2 13 2C6.383 2 1 7.383 1 14C1 20.617 6.383 26 13 26C19.617 26 25 20.617 25 14C25 11.99 24.497 10.097 23.62 8.431C23.487 8.694 23.352 8.959 23.213 9.226ZM8.878 4.899C8.503 5.52 8.169 6.224 7.881 7H5.871C6.729 6.126 7.749 5.413 8.878 4.899ZM4.354 9H7.286C6.998 10.23 6.813 11.575 6.755 13H3.051C3.195 11.553 3.656 10.2 4.354 9ZM4.354 19C3.657 17.8 3.196 16.447 3.051 15H6.754C6.813 16.425 6.997 17.77 7.285 19H4.354ZM5.871 21H7.881C8.169 21.776 8.503 22.48 8.878 23.101C7.749 22.587 6.729 21.874 5.871 21ZM13 24C11.951 24 10.844 22.887 10.018 21H15.983C15.156 22.887 14.049 24 13 24ZM17.122 23.101C17.497 22.481 17.831 21.777 18.119 21H20.129C19.271 21.874 18.251 22.587 17.122 23.101Z" fill="#333333"/>
<path d="M19 0C16.791 0 15 1.793 15 4C15 6.665 18.488 10.321 18.488 13.984H19.51C19.511 10.321 23 6.771 23 4C23 1.793 21.209 0 19 0ZM19 6.061C17.862 6.061 16.939 5.141 16.939 4C16.939 2.862 17.862 1.939 19 1.939C20.139 1.939 21.061 2.862 21.061 4C21.061 5.141 20.139 6.061 19 6.061Z" fill="#333333"/>
</svg>
